X:6   
T:Espoirs perdus (valse musette)
C:A. Morelli
H:c WW2
I:Rights for public performance
Q:1/4=180
M:3/4 
P:IABCDABC
K:F
P:I
"Dm"z2 [F2D2A,2] [F2D2A,2] |z2 [F2D2A,2] [F2D2A,2] |\
z2 [F2D2A,2] [F2D2A,2] |z2 [F2D2A,2] A,2| 
P:A
|:A6 |B4 A2 |F4 E2 |D4 DE |GF ED CB, |"D7"A,G, B,A, CB, |\
"Gm"G,6 |[D2B,2G,2] G,B, DG |B6 |e4 d2 |
^c6 |[g4^c4A4] ef |\
g2 e2 ^c2 |B2 G2 E2 |"Dm"ED FE DF |"A7"[A4^C4] [A2A,2] |
"Dm"[a6A6] |[b4B4] [a2A2] |[f4F4] (3efe |d4 de |\
gf ed cB |"D7"AG BA cB |"Gm"G6 |G2 z2 g2 |\
gf ef ga |gf eg fe |
"Dm"fe de fg |ag fe dc |\
BA ^cA eA |"A7"BA ^cA eA |"Dm"[d2A2F2] z [dAF] [d2A2F2] |\
[1[d2A2F2] z2 A,2 :|[2 [d2A2F2] z2 c2||
P:B
|:(3"F"cdc =B2 c2 |a4 g2 |\
(3"C7"fgf e2 G2 |[B6E6] |(3fgf e2 G2 |[B6E6] |\
(3"F"ded c2 F2 |[A6F6] |(3cdc =B2 c2 |"D7"b4 a2 |
"G7dim"^c6 |"Gm"d6 |"C7"c2 [b2B2] [g2B2] |[e2B2] [cB] z z [EB,] |\
"F"[F6A,6] |1[F2A,2] z2 c2 :|2[F2A,2] z2 z2|| 
P:C
|:"Dm"A,2 D2 F2 |\
A2 d2 e2 |f6 |f2 e2 d2 |c2 B2 A2 |\
G2 F2 D2 |"A7"[E6^C6] |[E2C2] z2 z2 |A,2 ^C2 E2 |
A2 ^c2 e2 |g6 |g2 f2 e2 |d2 ^c2 B2 |\
A2 E2 G2 |"Dm"[F6D6] |[F2D2] z2 z2 |A,2 D2 F2 |
A2 d2 e2 |f6 |f2 z2 z2 |"D7"[d6c6^F6] |\
[_e4c4^F4] [d2c2F2] |"Gm"[g6B6G6] |[g6B6G6] |G,B, DG ^FG |
G,B, DG ^FG |DF Ad ^cd |"Dm"DF Ad ^cd |"A7"A^c ea ^ga |\
A^c ea ^ga |"Dm"DF Ad fa |[d'2a2f2d2] z2 z2||
P:D
|:"F"[c6A6F6] |[d6A6F6] |"C7"[B6G6E6] |[B2G2E2] z2 z2 |[d6B6G6] |\
[e6B6G6] |"F"[c6A6F6] |[c2A2F2] [A2F2] [B2G2] |[=B2^G2] [c2A2] [d2_B2] |
[c2A2] [A2F2] [c2A2] |"C7"[B6G6E6] |[B2G2E2] [G2E2] [c2E2] |[B6E6] |\
"C7"[B2E2] [G2E2] [d2B2] |"F"[c6A6] |[c4A4] z2 |[c6A6F6] |
[d6A6F6] |"C7"[B6G6E6] |[B2G2E2] z2 z2 |[d6B6G6] |\
[e6B6G6] |"F"[c6A6F6] |[c2A2F2] [A2F2] [B2G2] |[=B2^G2] [c2A2] [d2_B2] |
[c2A2] [A2F2] [c2A2] |"C7"[B6G6E6] |[B2G2E2] [G2E2] [c2E2] |[B6E6] |\
[B2E2] G2 E2 |"F"[F6A,6] |1[F2A,2] FG AB :|2[F2A,2] z2 A,2 |]
